X: 59
T:Seymour's Fancy (#255)
M:4/4
L:1/8
S:Wilson's Companion to the Ballroom 1816
R:Reel
K:G
G2 BG Bd d2|c2 ec eg g2|G2 BG Bddg|edcB A2 G2:||
g2 fg afed|edef gdBd|g2 fg afed|edef g2 (3def|
gbaf edef|gfge dBAB|cBcd efge|dcBGA2 G2||

